file/tyson.svg

<svg clip-rule="evenodd" fill-rule="evenodd" stroke-linejoin="round" stroke-miterlimit="1.41421" viewBox="0 0 560 400" xmlns="http://www.w3.org/2000/svg"><path d="m58.115 43.622s.114-.127.114-.381c0-.317-.231-.658-.648-.658-.389 0-.677.312-.677.723 0 .552.55.856 1.128.856 1.005 0 1.655-.643 2.231-2.006l1.802-4.265h.568v-.705h-2.081v.705h.732l-1.29 3.264-1.29-3.264h.87v-.705h-2.835v.705h.693l1.962 4.447c-.382.965-.663 1.203-1.279 1.284zm17.097-6.436h-1.914v.705h.792v3.643h-.792v.706h2.655v-.706h-.686v-2.073c0-.963.654-1.57 1.258-1.57.554 0 .911.406.911 1.133v2.51h-.695v.706h2.664v-.706h-.801v-2.824c0-1.028-.525-1.642-1.404-1.642-.774 0-1.5.3-1.988 1.186zm-6.141 2.527c0-1.503.405-2.093 1.315-2.093s1.315.59 1.315 2.093c0 1.5-.405 2.093-1.315 2.093s-1.315-.593-1.315-2.093zm3.931 0c0-1.572-1.063-2.645-2.616-2.645s-2.617 1.073-2.617 2.645c0 1.569 1.064 2.645 2.617 2.645s2.616-1.076 2.616-2.645zm-8.196-2.645c-1.029 0-1.774.677-1.774 1.56 0 .797.473 1.222 1.745 1.565.967.252 1.399.451 1.399.962 0 .444-.31.699-.854.699-.676 0-1.345-.512-1.716-1.304h-.653v1.808h.619l.162-.778c.333.43.843.778 1.623.778 1.195 0 1.841-.816 1.841-1.596 0-.917-.652-1.272-1.78-1.572-.897-.236-1.354-.444-1.354-.932 0-.396.321-.698.798-.698.737 0 1.147.588 1.478 1.193h.644v-1.685h-.63l-.155.71c-.26-.408-.697-.71-1.393-.71zm-14.673-2.304v1.927h.554c.197-1.097.421-1.219 1.554-1.221h.871v6.064h-1.484v.706h4.169v-.706h-1.483v-6.064h.87c1.134.002 1.359.124 1.555 1.221h.555v-1.927zm-12.454 3.538h-.949c-.233 0-.424-.19-.424-.425h-.592c0 .197.056.379.154.535h-.097c-.295 0-.535-.24-.535-.535h-.592c0 .293.123.557.322.741-.199.185-.322.449-.322.742h.592c0-.295.24-.535.535-.535h.097c-.098.153-.154.338-.154.535h.592c0-.235.191-.425.424-.425h.949zm3.665 4.483v-.835h-1.826v-7.186h1.097c1.326 0 1.608.146 1.841 1.445h.658v-2.283h-8.47v2.283h.657c.233-1.299.516-1.445 1.841-1.445h1.097v7.186h-1.826v.835zm.991-4.99h-.454v.507h-1.804v.633h1.804v.507h.454c.113-.322.42-.55.779-.55v-.547c-.359 0-.666-.228-.779-.55zm-3.457-7.55c-4.264 0-7.721 3.458-7.721 7.723s3.457 7.723 7.721 7.723c4.266 0 7.722-3.458 7.722-7.723s-3.456-7.723-7.722-7.723zm8.658 7.723c0 4.781-3.877 8.657-8.658 8.657-4.78 0-8.657-3.876-8.657-8.657s3.877-8.657 8.657-8.657c4.781 0 8.658 3.876 8.658 8.657zm-1.181 7.723-.201.622-.212-.622h-.246v.838h.153v-.672l.235.672h.128l.235-.679v.679h.153v-.838zm-1.465 0h.683v.135h-.259v.703h-.165v-.703h-.259" fill="#00205b" fill-rule="nonzero" transform="matrix(7.31945 0 0 7.31945 -121.201 -77.905)"/></svg>

<?xml version="1.0" encoding="UTF-8" standalone="no"?>
<!DOCTYPE svg PUBLIC "-//W3C//DTD SVG 1.1//EN" "http://www.w3.org/Graphics/SVG/1.1/DTD/svg11.dtd">
<svg width="100%" height="100%" viewBox="0 0 560 400" version="1.1" xmlns="http://www.w3.org/2000/svg" xmlns:xlink="http://www.w3.org/1999/xlink" xml:space="preserve" xmlns:serif="http://www.serif.com/" style="fill-rule:evenodd;clip-rule:evenodd;stroke-linejoin:round;stroke-miterlimit:1.41421;">
    <g transform="matrix(7.31945,0,0,7.31945,-121.201,-77.905)">
        <path d="M58.115,43.622C58.115,43.622 58.229,43.495 58.229,43.241C58.229,42.924 57.998,42.583 57.581,42.583C57.192,42.583 56.904,42.895 56.904,43.306C56.904,43.858 57.454,44.162 58.032,44.162C59.037,44.162 59.687,43.519 60.263,42.156L62.065,37.891L62.633,37.891L62.633,37.186L60.552,37.186L60.552,37.891L61.284,37.891L59.994,41.155L58.704,37.891L59.574,37.891L59.574,37.186L56.739,37.186L56.739,37.891L57.432,37.891L59.394,42.338C59.012,43.303 58.731,43.541 58.115,43.622ZM75.212,37.186L73.298,37.186L73.298,37.891L74.09,37.891L74.09,41.534L73.298,41.534L73.298,42.24L75.953,42.24L75.953,41.534L75.267,41.534L75.267,39.461C75.267,38.498 75.921,37.891 76.525,37.891C77.079,37.891 77.436,38.297 77.436,39.024L77.436,41.534L76.741,41.534L76.741,42.24L79.405,42.24L79.405,41.534L78.604,41.534L78.604,38.71C78.604,37.682 78.079,37.068 77.2,37.068C76.426,37.068 75.7,37.368 75.212,38.254L75.212,37.186ZM69.071,39.713C69.071,38.21 69.476,37.62 70.386,37.62C71.296,37.62 71.701,38.21 71.701,39.713C71.701,41.213 71.296,41.806 70.386,41.806C69.476,41.806 69.071,41.213 69.071,39.713ZM73.002,39.713C73.002,38.141 71.939,37.068 70.386,37.068C68.833,37.068 67.769,38.141 67.769,39.713C67.769,41.282 68.833,42.358 70.386,42.358C71.939,42.358 73.002,41.282 73.002,39.713ZM64.806,37.068C63.777,37.068 63.032,37.745 63.032,38.628C63.032,39.425 63.505,39.85 64.777,40.193C65.744,40.445 66.176,40.644 66.176,41.155C66.176,41.599 65.866,41.854 65.322,41.854C64.646,41.854 63.977,41.342 63.606,40.55L62.953,40.55L62.953,42.358L63.572,42.358L63.734,41.58C64.067,42.01 64.577,42.358 65.357,42.358C66.552,42.358 67.198,41.542 67.198,40.762C67.198,39.845 66.546,39.49 65.418,39.19C64.521,38.954 64.064,38.746 64.064,38.258C64.064,37.862 64.385,37.56 64.862,37.56C65.599,37.56 66.009,38.148 66.34,38.753L66.984,38.753L66.984,37.068L66.354,37.068L66.199,37.778C65.939,37.37 65.502,37.068 64.806,37.068ZM50.133,34.764L50.133,36.691L50.687,36.691C50.884,35.594 51.108,35.472 52.241,35.47L53.112,35.47L53.112,41.534L51.628,41.534L51.628,42.24L55.797,42.24L55.797,41.534L54.314,41.534L54.314,35.47L55.184,35.47C56.318,35.472 56.543,35.594 56.739,36.691L57.294,36.691L57.294,34.764L50.133,34.764ZM37.679,38.302L36.73,38.302C36.497,38.302 36.306,38.112 36.306,37.877L35.714,37.877C35.714,38.074 35.77,38.256 35.868,38.412L35.771,38.412C35.476,38.412 35.236,38.172 35.236,37.877L34.644,37.877C34.644,38.17 34.767,38.434 34.966,38.618C34.767,38.803 34.644,39.067 34.644,39.36L35.236,39.36C35.236,39.065 35.476,38.825 35.771,38.825L35.868,38.825C35.77,38.978 35.714,39.163 35.714,39.36L36.306,39.36C36.306,39.125 36.497,38.935 36.73,38.935L37.679,38.935L37.679,38.302ZM41.344,42.785L41.344,41.95L39.518,41.95L39.518,34.764L40.615,34.764C41.941,34.764 42.223,34.91 42.456,36.209L43.114,36.209L43.114,33.926L34.644,33.926L34.644,36.209L35.301,36.209C35.534,34.91 35.817,34.764 37.142,34.764L38.239,34.764L38.239,41.95L36.413,41.95L36.413,42.785L41.344,42.785ZM42.335,37.795L41.881,37.795L41.881,38.302L40.077,38.302L40.077,38.935L41.881,38.935L41.881,39.442L42.335,39.442C42.448,39.12 42.755,38.892 43.114,38.892L43.114,38.345C42.755,38.345 42.448,38.117 42.335,37.795ZM38.878,30.245C34.614,30.245 31.157,33.703 31.157,37.968C31.157,42.233 34.614,45.691 38.878,45.691C43.144,45.691 46.6,42.233 46.6,37.968C46.6,33.703 43.144,30.245 38.878,30.245ZM47.536,37.968C47.536,42.749 43.659,46.625 38.878,46.625C34.098,46.625 30.221,42.749 30.221,37.968C30.221,33.187 34.098,29.311 38.878,29.311C43.659,29.311 47.536,33.187 47.536,37.968ZM46.355,45.691L46.154,46.313L45.942,45.691L45.696,45.691L45.696,46.529L45.849,46.529L45.849,45.857L46.084,46.529L46.212,46.529L46.447,45.85L46.447,46.529L46.6,46.529L46.6,45.691L46.355,45.691ZM44.89,45.691L45.573,45.691L45.573,45.826L45.314,45.826L45.314,46.529L45.149,46.529L45.149,45.826L44.89,45.826" style="fill:rgb(0,32,91);fill-rule:nonzero;"/>
    </g>
</svg>
